X:123
T:Zakynthos Jig
C:by Roger Wilson (From The House Band's October Song CD
M:6/8
L:1/8
Q:1/8=400
K:C
|:a2a gag|e3 a2g|ecc BcB|AFF F3|
  EAB cBA|FAB cBA|B3 edB|B2d cBA:|
|: EAB cBA|FAB cBA|B3 edB|B2d cBA|
   EAB cBA|FAB cBA|B3 edB|1 B2d cBA:|2 B2A ABc|
|: d2d2c2|dc2 B2A|d2d2cd|B4zA|
   d2d2c2|dc2 B2A|d2d2cd|1 e4zA:|2 e6|]
